X:128
T:Peacock Hornpipe,The,aka. RH.128
R:.Hornpipe
S:Rev.R.Harrison’s MS,c1815,Cumbria
N:My title. “A Hornpipe” in MS
O:England
A:Temple Sowerby,Cumbria
Z:vmp.Simon Wilson. Review PJH, 2008.
M:C|
L:1/8
Q:1/2=90
K:A
e|a2ec A2cA|GABG EFED|CEAc defe|dcBA GA/B/E2|!
“sic”g2ec A2cA|GABG EFED|CEAc defd|cABG A3:|!
|:e/d/|cedf ceBe|Acea gfed|”sic”defe dcBA|GABG E3e/d/|!
cedf ceBe|Acea gfed|cafd ceGB|A2A2 A3:|
W:Christened by Simon Wilson. “A Hornpipe” and “by Peacock” in the MS.

